api/icons/FlatIcon Logo.svg

<svg width="135" height="26" viewBox="0 0 135 26" fill="none" xmlns="http://www.w3.org/2000/svg">
<g clip-path="url(#clip0)">
<path d="M53.2235 23.5869H49.3829V2.41309H53.2235V23.5869ZM70.081 23.5869H66.3424V22.0235C65.8291 22.658 65.1745 23.1635 64.4309 23.4999C63.6874 23.8363 62.8755 23.9941 62.0601 23.9608C58.1176 23.9608 55.1607 20.732 55.1607 16.4497C55.1607 12.1673 58.1516 8.93858 62.0601 8.93858C62.8783 8.90931 63.692 9.07241 64.4357 9.41477C65.1795 9.75713 65.8325 10.2692 66.3424 10.9098V9.34642H70.081V23.5869ZM59.0692 16.4497C59.0692 18.6249 60.4967 20.3922 62.7398 20.3922C64.9829 20.3922 66.4104 18.7268 66.4104 16.4497C66.4104 14.1726 64.915 12.5072 62.7398 12.5072C60.5646 12.5072 59.1032 14.2745 59.1032 16.4497H59.0692ZM89.2156 4.65623C89.2156 5.30523 88.9578 5.92765 88.4989 6.38656C88.04 6.84547 87.4175 7.10329 86.7685 7.10329C86.1195 7.10329 85.4971 6.84547 85.0382 6.38656C84.5793 5.92765 84.3215 5.30523 84.3215 4.65623C84.3215 4.00723 84.5793 3.38481 85.0382 2.92589C85.4971 2.46698 86.1195 2.20917 86.7685 2.20917C87.4175 2.20917 88.04 2.46698 88.4989 2.92589C88.9578 3.38481 89.2156 4.00723 89.2156 4.65623V4.65623ZM88.7058 23.5869H84.8313V9.31244H88.7058V23.5869Z" fill="black"/>
<path d="M47.4458 6.04966C46.5928 5.66837 45.6585 5.50487 44.7268 5.57384C43.6392 5.70979 43.0614 6.25358 43.0614 7.57907V9.3124H47.4797V12.7451H43.0614V23.6209H39.2209V12.7451H36.5699V9.34639H39.2209V7.54508C39.2209 4.18038 40.9882 2.00521 44.319 2.00521C45.4032 1.99152 46.4789 2.1997 47.4797 2.61698L47.4458 6.04966Z" fill="black"/>
<path d="M79.9032 20.3921C78.7137 20.3921 77.762 19.7464 77.762 17.9791V12.7451H82.928V9.34639H77.762V5.09802H73.9215V9.34639H71.9843V12.7451H73.9215V18.251C73.9215 21.9555 75.7228 23.9608 79.2575 23.9608C80.5321 23.9824 81.7926 23.6907 82.928 23.1111L81.4666 20.0183C80.9746 20.2429 80.4436 20.3698 79.9032 20.3921V20.3921ZM118.58 16.4497C118.58 20.732 115.284 23.9608 110.865 23.9608C106.447 23.9608 103.15 20.766 103.15 16.4497C103.15 12.1333 106.413 8.93855 110.865 8.93855C115.318 8.93855 118.58 12.1673 118.58 16.4497ZM107.059 16.4497C107.059 18.7608 108.69 20.3921 110.831 20.3921C112.972 20.3921 114.638 18.7608 114.638 16.4497C114.638 14.1385 113.006 12.5072 110.831 12.5072C108.656 12.5072 107.093 14.1385 107.093 16.4497H107.059ZM134.01 14.5124V23.5869H130.136V15.7359C130.136 13.6627 129.116 12.5412 127.349 12.5412C125.582 12.5412 124.324 13.6287 124.324 15.7699V23.5869H120.518V9.3124H124.256V10.9778C125.276 9.44835 126.839 8.90456 128.437 8.90456C131.699 8.93855 134.01 11.2157 134.01 14.5124V14.5124Z" fill="black"/>
<path d="M101.281 18.9307C100.57 19.7468 99.572 20.2579 98.4941 20.3582H98.1882L97.5765 20.2902C97.0347 20.1998 96.5228 19.9794 96.0848 19.648C95.6468 19.3165 95.2957 18.8838 95.0615 18.3869C94.7779 17.7692 94.6385 17.0952 94.6536 16.4157C94.6414 15.7218 94.7927 15.0349 95.0954 14.4104C95.3394 13.9174 95.6984 13.4903 96.142 13.1649C96.5856 12.8396 97.1009 12.6257 97.6445 12.5412H98.4601C99.003 12.5736 99.5334 12.717 100.019 12.9625C100.504 13.208 100.933 13.5504 101.281 13.9686L103.15 10.7059C102.359 10.011 101.416 9.51061 100.397 9.24443C99.7213 9.06295 99.0242 8.97153 98.3242 8.97253C97.4605 8.96792 96.6011 9.09396 95.7752 9.34639C94.7637 9.65843 93.8347 10.1926 93.0562 10.9098C92.3032 11.626 91.7086 12.492 91.3105 13.452C90.9125 14.412 90.7199 15.4447 90.7451 16.4836C90.7203 17.5144 90.9098 18.5391 91.3018 19.4927C91.6938 20.4464 92.2797 21.3082 93.0222 22.0235C93.8008 22.7407 94.7297 23.2749 95.7412 23.5869C96.5871 23.8577 97.47 23.9953 98.3582 23.9948C99.0695 23.998 99.7781 23.9065 100.465 23.7229C101.487 23.4455 102.43 22.9335 103.218 22.2274L101.281 18.9307Z" fill="black"/>
<path d="M15.736 9.00654H9.14255L7.06934 5.43791H17.8092L20.936 5.46615e-06H3.19483C2.63568 -0.00103427 2.08626 0.146274 1.60263 0.4269C1.11899 0.707527 0.718461 1.11143 0.441891 1.59739C0.158122 2.08191 0.00854492 2.63328 0.00854492 3.19478C0.00854492 3.75628 0.158122 4.30764 0.441891 4.79216L11.7595 24.4026C12.0417 24.8819 12.4442 25.2791 12.927 25.5551C13.4098 25.8311 13.9563 25.9763 14.5125 25.9763C15.0686 25.9763 15.6151 25.8311 16.098 25.5551C16.5808 25.2791 16.9832 24.8819 17.2654 24.4026L17.6393 23.7569L12.4393 14.7163L15.736 9.00654Z" fill="#4AD295"/>
<path d="M28.6169 1.59739C28.3404 1.11143 27.9398 0.707527 27.4562 0.4269C26.9726 0.146274 26.4232 -0.00103427 25.864 5.46615e-06H25.0823L16.5856 14.7163L19.7124 20.1543L28.6169 4.75818C28.8944 4.27768 29.0404 3.73262 29.0404 3.17778C29.0404 2.62295 28.8944 2.07789 28.6169 1.59739V1.59739Z" fill="#4AD295"/>
</g>
<defs>
<clipPath id="clip0">
<rect width="134.01" height="26" fill="white"/>
</clipPath>
</defs>
</svg>

<svg width="135" height="26" fill="none" xmlns="http://www.w3.org/2000/svg"><g clip-path="url(#clip0)"><path d="M53.224 23.587h-3.841V2.413h3.84v21.174zm16.857 0h-3.739v-1.564a5.233 5.233 0 0 1-4.282 1.938c-3.942 0-6.9-3.229-6.9-7.511 0-4.283 2.992-7.511 6.9-7.511a5.234 5.234 0 0 1 4.282 1.97V9.347h3.739v14.24zM59.069 16.45c0 2.175 1.428 3.942 3.67 3.942 2.244 0 3.671-1.665 3.671-3.942s-1.495-3.943-3.67-3.943-3.637 1.768-3.637 3.943h-.034zM89.216 4.656a2.447 2.447 0 1 1-4.895 0 2.447 2.447 0 0 1 4.895 0zm-.51 18.93H84.83V9.313h3.875v14.275zM47.446 6.05a5.642 5.642 0 0 0-2.72-.476c-1.087.136-1.665.68-1.665 2.005v1.733h4.419v3.433H43.06v10.876h-3.84V12.745H36.57V9.346h2.65v-1.8c0-3.366 1.768-5.54 5.099-5.54a7.953 7.953 0 0 1 3.16.611l-.033 3.433zm32.457 14.342c-1.19 0-2.141-.646-2.141-2.413v-5.234h5.166V9.346h-5.166V5.098h-3.84v4.248h-1.938v3.4h1.938v5.505c0 3.704 1.8 5.71 5.335 5.71a7.783 7.783 0 0 0 3.671-.85l-1.461-3.093a4.18 4.18 0 0 1-1.564.374zm38.677-3.942c0 4.282-3.296 7.51-7.715 7.51-4.418 0-7.715-3.194-7.715-7.51 0-4.317 3.263-7.511 7.715-7.511 4.453 0 7.715 3.228 7.715 7.51zm-11.521 0c0 2.31 1.631 3.942 3.772 3.942s3.807-1.631 3.807-3.942-1.632-3.943-3.807-3.943-3.738 1.632-3.738 3.943h-.034zm26.951-1.938v9.075h-3.874v-7.851c0-2.073-1.02-3.195-2.787-3.195s-3.025 1.088-3.025 3.229v7.817h-3.806V9.312h3.738v1.666c1.02-1.53 2.583-2.073 4.181-2.073 3.262.034 5.573 2.31 5.573 5.607z" fill="#000"/><path d="M101.281 18.93a4.214 4.214 0 0 1-2.787 1.428h-.306l-.612-.068a3.4 3.4 0 0 1-2.514-1.903 4.485 4.485 0 0 1-.408-1.971 4.42 4.42 0 0 1 .441-2.006 3.434 3.434 0 0 1 2.55-1.869h.815a3.98 3.98 0 0 1 2.821 1.428l1.869-3.263a6.76 6.76 0 0 0-2.753-1.462 7.948 7.948 0 0 0-2.073-.271 8.564 8.564 0 0 0-2.549.373 7.103 7.103 0 0 0-2.719 1.564 7.443 7.443 0 0 0-2.31 5.574 7.444 7.444 0 0 0 2.276 5.54 7.104 7.104 0 0 0 2.72 1.563c.845.27 1.728.408 2.616.408a8.02 8.02 0 0 0 2.107-.272 6.79 6.79 0 0 0 2.753-1.496l-1.937-3.296z" fill="#000"/><path d="M15.736 9.007H9.143l-2.074-3.57h10.74L20.936 0H3.195A3.16 3.16 0 0 0 .442 1.597a3.16 3.16 0 0 0 0 3.195l11.317 19.61a3.195 3.195 0 0 0 5.506 0l.374-.645-5.2-9.04 3.297-5.71z" fill="#4AD295"/><path d="M28.617 1.597A3.16 3.16 0 0 0 25.864 0h-.782l-8.496 14.716 3.126 5.438 8.905-15.396a3.16 3.16 0 0 0 0-3.16z" fill="#4AD295"/></g><defs><clipPath id="clip0"><path fill="#fff" d="M0 0H134.01V26H0z"/></clipPath></defs></svg>
